frontend_bundler/tommy/optimized/images/logo-min.svg

<svg width="387" height="442" viewBox="0 0 387 442" fill="none" xmlns="http://www.w3.org/2000/svg">
    <path d="M193.389 441.709C272.506 415.11 320.523 361.478 347.568 304.58C378.167 247.693 387.605 183.72 386.658 130.243V38.4667C307.875 2.80812 231.064 0 193.367 0C155.669 0 78.8693 2.77469 0.0638647 38.4667V130.243C-0.883316 183.731 8.54392 247.693 39.1546 304.58C66.1882 361.411 114.249 415.11 193.322 441.709H193.389Z" fill="#B3292D"/>
    <path d="M323.532 157.408H224.212V57.9656H156.55V157.408H57.2405V230.141H156.55V329.572H224.212V230.141H323.532V157.408Z" fill="white"/>
</svg>

<svg width="387" height="442" fill="none" xmlns="http://www.w3.org/2000/svg"><path d="M193.389 441.709c79.117-26.599 127.134-80.231 154.179-137.129 30.599-56.887 40.037-120.86 39.09-174.337V38.467C307.875 2.808 231.064 0 193.367 0 155.669 0 78.869 2.775.064 38.467v91.776c-.947 53.488 8.48 117.45 39.09 174.337 27.034 56.831 75.095 110.53 154.168 137.129h.067z" fill="#B3292D"/><path d="M323.532 157.408h-99.32V57.966H156.55v99.442H57.24v72.733h99.31v99.431h67.662v-99.431h99.32v-72.733z" fill="#fff"/></svg>
